X: 1054
T: Alzen
R: reel
M: 4/4
K: Amajor
|C3E2A3C2|D3E2A3B2|c3A2d3c2|e4-e6|
E2F3G2A3|E2F3G2A3|E2F3G2A3|EAB2B6|
C3E2A3C2|D3E2A3B2|c3A2d3c2-|c4-c6|
G3E2=F3=G2|G3_B2=c3_B2|=c3=f2=f3=g2|d3d2e3e2|
G3A2e3d2|c3A2B3E2|E2F3G2A3|E2F3G2A3|E2F3G2A3|EAB2B6|
B3AGA3e2|d3cA B3E2|E3D2C3D2|E3A2G3E2|G4A6|

